assets/gitlab.svg

<svg xmlns="http://www.w3.org/2000/svg" width="24" height="24" viewBox="0 0 24 24"><path d="M3.16 10L12 21.5l-9.68-7.2a.784.784 0 01-.28-.86L3.16 10m2.95-6.83c-.11-.34-.61-.34-.74 0L3.16 10h5.16L6.11 3.17M8.32 10L12 21.5 15.68 10H8.32m13.64 3.44L20.84 10 12 21.5l9.68-7.2c.27-.21.38-.55.28-.86M18.63 3.17c-.13-.34-.63-.34-.74 0L15.68 10h5.16l-2.21-6.83z"/></svg>

<?xml version="1.0" encoding="UTF-8"?><!DOCTYPE svg PUBLIC "-//W3C//DTD SVG 1.1//EN" "http://www.w3.org/Graphics/SVG/1.1/DTD/svg11.dtd"><svg xmlns="http://www.w3.org/2000/svg" xmlns:xlink="http://www.w3.org/1999/xlink" version="1.1" width="24" height="24" viewBox="0 0 24 24"><path d="M3.16,10L12,21.5L2.32,14.3C2.05,14.09 1.94,13.75 2.04,13.44L3.16,10M6.11,3.17C6,2.83 5.5,2.83 5.37,3.17L3.16,10H8.32L6.11,3.17M8.32,10L12,21.5L15.68,10H8.32M21.96,13.44L20.84,10L12,21.5L21.68,14.3C21.95,14.09 22.06,13.75 21.96,13.44M18.63,3.17C18.5,2.83 18,2.83 17.89,3.17L15.68,10H20.84L18.63,3.17Z" /></svg>
